X:1
T:Title
%%score 1 { 2 | 3 }
L:1/8
Q:1/4=90
M:3/4
K:Bb
V:1 treble nm="Grand Piano, Soprano"
V:2 bass nm="Choir Pad, Redondo, J. H. Rosecrans"
V:3 bass 
V:1
 [B,D][B,D] [CE] [DF]3 | [DB][CA] [DB] [DF]3 | [DB][CA] [DB] [Ec]3 | [EA][EG] [EF] [DF]3 | %4
w: By~James~Holmes~Rosecrans,~1893 * * *||||
 [B,D][B,D] [CE] [DF]3 | [DB][CA] [DB] [DF]3 | [DB][CA] [DB] [Fc]3 | [Fe][Fd] [Ec] [DB]3 | %8
w: ||||
 [DF][CA] [DB] [Ec]3 | F[FB] [Fc] [Fd]3 | [Fd][Ge] [Ge] [GB]3 | [Gc][Fd] [Fd] [Fc]3 | %12
w: ||||
 [EF][CA] [DB] [Ec]3 | F[FB] [Fc] [Fd]3 | [Fd][Fc] [Fd] [Fc]3 | [FB][FA] [=EG] F3 | %16
w: ||||
 [B,D][B,D] [CE] [DF]3 | [DB][CA] [DB] [DF]3 | [DB][CA] [DB] [Ec]3 | [EA][EG] [EF] [DF]3 | %20
w: ||||
 [B,D][B,D] [CE] [DF]3 | [DB][CA] [DB] [DF]3 | [DB][CA] [DB] [Fc]3 | [Fe][Fd] [Ec] [DB]3 |] %24
w: ||||
V:2
 F,F, F, B,3 | F,F, F, B,3 | B,C B, A,3 | CB, B, B,3 | F,F, F, B,3 | F,F, F, B,3 | B,C B, A,3 | %7
 CB, F, F,3 | B,C B, A,3 | CB, A, B,3 | B,B, B, B,3 | G,B, B, A,3 | A,C B, A,3 | CB, A, B,3 | %14
 B,A, B, A,3 | DC B, A,3 | F,F, F, B,3 | F,F, F, B,3 | B,C B, A,3 | CB, B, B,3 | F,F, F, B,3 | %21
 F,F, F, B,3 | B,C B, A,3 | CB, F, F,3 |] %24
V:3
 B,,B,, B,, B,,3 | B,,B,, B,, B,,3 | B,,F, F, F,3 | F,B,, B,, B,,3 | B,,B,, B,, B,,3 | %5
 B,,B,, B,, B,,3 | B,,F, F, F,3 | F,F, z B,,3 | B,,F, F, F,3 | E,D, .F,2 z2 | z E, E, E,3 | %11
 E,B,, B,, F,3 | F,F, F, F,3 | F,D, .F,2 z2 | z F, F, F,3 | B,,C, C, F,3 | B,,B,, B,, B,,3 | %17
 B,,B,, B,, B,,3 | B,,F, F, F,3 | F,B,, B,, B,,3 | B,,B,, B,, B,,3 | B,,B,, B,, B,,3 | %22
 B,,F, F, F,3 | F,F, z B,,3 |] %24

